packages/icons/general/DiscordRound.svg

<svg width="24" height="24" viewBox="0 0 24 24" xmlns="http://www.w3.org/2000/svg">
<g>
        <circle cx="12" cy="12" r="12" fill="#5863F1" />
        <path
            d="M17.9011 6.58478C16.7982 6.07847 15.6343 5.71742 14.4385 5.51066C14.4276 5.50863 14.4163 5.51008 14.4063 5.51481C14.3963 5.51954 14.388 5.52731 14.3826 5.53702C14.2241 5.82484 14.0801 6.12048 13.9514 6.42281C12.6441 6.22706 11.3431 6.22706 10.0627 6.42281C9.94648 6.14392 9.77493 5.80297 9.6247 5.53702C9.61914 5.52751 9.61083 5.5199 9.60086 5.5152C9.5909 5.51049 9.57975 5.50891 9.56887 5.51066C8.37302 5.71701 7.20911 6.07808 6.10644 6.58478C6.097 6.58881 6.08905 6.59568 6.08368 6.60443C3.87818 9.8989 3.27391 13.1129 3.57029 16.2866C3.57112 16.2944 3.57353 16.302 3.57735 16.3089C3.58118 16.3157 3.58636 16.3218 3.59258 16.3266C5.04766 17.3952 6.45697 18.0438 7.84041 18.4739C7.85117 18.4771 7.86265 18.4769 7.87331 18.4734C7.88398 18.4699 7.89331 18.4632 7.90007 18.4542C8.2281 18.0077 8.51875 17.5349 8.76909 17.0406C8.7725 17.0338 8.77443 17.0264 8.77477 17.0188C8.77511 17.0113 8.77385 17.0037 8.77107 16.9966C8.76829 16.9896 8.76405 16.9832 8.75863 16.9779C8.75321 16.9726 8.74674 16.9685 8.73962 16.9658C8.28123 16.7904 7.83746 16.5789 7.41249 16.3333C7.40477 16.3288 7.39829 16.3224 7.39361 16.3147C7.38894 16.3071 7.38623 16.2984 7.38571 16.2894C7.38519 16.2805 7.38688 16.2715 7.39063 16.2634C7.39438 16.2553 7.40008 16.2482 7.40722 16.2427C7.49635 16.1759 7.58548 16.1064 7.67078 16.0362C7.67838 16.03 7.68757 16.026 7.69731 16.0248C7.70704 16.0235 7.71694 16.025 7.72588 16.029C10.5098 17.2998 13.5237 17.2998 16.2747 16.029C16.2837 16.0247 16.2937 16.023 16.3036 16.0241C16.3135 16.0253 16.3228 16.0292 16.3306 16.0355C16.4159 16.1057 16.505 16.1759 16.5948 16.2427C16.602 16.2481 16.6077 16.2552 16.6115 16.2633C16.6153 16.2714 16.6171 16.2804 16.6166 16.2893C16.6161 16.2982 16.6134 16.3069 16.6088 16.3146C16.6042 16.3223 16.5977 16.3287 16.5901 16.3333C16.1662 16.5809 15.7221 16.7923 15.2627 16.9651C15.2556 16.9679 15.2491 16.9721 15.2437 16.9774C15.2383 16.9828 15.2341 16.9893 15.2314 16.9964C15.2286 17.0035 15.2274 17.0111 15.2278 17.0188C15.2282 17.0264 15.2302 17.0338 15.2337 17.0406C15.4882 17.5322 15.7784 18.0044 16.102 18.4535C16.1086 18.4627 16.1179 18.4696 16.1286 18.4732C16.1393 18.4768 16.1509 18.477 16.1617 18.4736C17.5516 18.0438 18.9611 17.395 20.4162 16.3266C20.4225 16.322 20.4277 16.3161 20.4315 16.3093C20.4353 16.3026 20.4376 16.295 20.4382 16.2873C20.7928 12.6179 19.844 9.43049 17.9232 6.60467C17.9184 6.5955 17.9105 6.58836 17.9009 6.58454L17.9011 6.58478ZM9.18456 14.3542C8.34668 14.3542 7.65592 13.5849 7.65592 12.6397C7.65592 11.6947 8.33326 10.9251 9.18456 10.9251C10.043 10.9251 10.7271 11.7014 10.7137 12.6397C10.7137 13.5849 10.0363 14.3542 9.1848 14.3542H9.18456ZM14.8374 14.3542C13.9993 14.3542 13.3088 13.5849 13.3088 12.6397C13.3088 11.6947 13.9859 10.9251 14.8374 10.9251C15.6956 10.9251 16.3797 11.7014 16.366 12.6397C16.366 13.5849 15.6956 14.3542 14.8374 14.3542Z"
            fill="white"
        />
    </g>
</svg>

<svg xmlns="http://www.w3.org/2000/svg" width="24" height="24">
    <circle cx="12" cy="12" r="12" fill="#5863F1"/>
    <path fill="#fff" d="M17.901 6.585a14.028 14.028 0 0 0-3.463-1.074.053.053 0 0 0-.055.026 9.767 9.767 0 0 0-.432.886 12.948 12.948 0 0 0-3.888 0 8.993 8.993 0 0 0-.438-.886.055.055 0 0 0-.056-.026 13.99 13.99 0 0 0-3.463 1.074.05.05 0 0 0-.022.02c-2.206 3.294-2.81 6.508-2.514 9.682a.059.059 0 0 0 .023.04 14.107 14.107 0 0 0 4.247 2.147.055.055 0 0 0 .06-.02c.328-.446.619-.92.87-1.413a.054.054 0 0 0-.03-.075 9.28 9.28 0 0 1-1.328-.633.054.054 0 0 1-.026-.044.055.055 0 0 1 .021-.046 7.77 7.77 0 0 0 .264-.207.053.053 0 0 1 .055-.007c2.784 1.27 5.798 1.27 8.549 0a.053.053 0 0 1 .056.006c.085.07.174.14.264.208a.055.055 0 0 1-.005.09 8.716 8.716 0 0 1-1.327.632.054.054 0 0 0-.029.076c.254.491.544.963.868 1.412a.054.054 0 0 0 .06.02 14.06 14.06 0 0 0 4.254-2.146.054.054 0 0 0 .022-.04c.355-3.67-.594-6.857-2.515-9.682a.043.043 0 0 0-.022-.02Zm-8.716 7.77c-.838 0-1.53-.77-1.53-1.715 0-.945.678-1.715 1.53-1.715.858 0 1.542.776 1.529 1.715 0 .945-.678 1.714-1.53 1.714Zm5.652 0c-.838 0-1.528-.77-1.528-1.715 0-.945.677-1.715 1.528-1.715.859 0 1.543.776 1.529 1.715 0 .945-.67 1.714-1.529 1.714Z"/>
</svg>
